X: 107
T: The Eavesdropper
R: jig
M: 6/8
L: 1/8
K: Gmaj
|:D2B BAG|B3 dBG|cee dBG|BAA ABA|
D3 BAG|B3 dBG|cee dBA|1 BGG G3:|2 BGG G2d |
|:gab afd|efg dBG|cee dBG|BAA ABd|
g2b afd|efg dBG| cee dBA|BGG G3:||
